X:13136
T:Pinch of Snuff
M:C
L:1/8
K:D Mixolydian
afge dcdB|ADFD EFGB|A3B cBcd|edcd efge:|!
f2df afde|f2df efge|f2df afdf|eAcA efge:|!
